img/skills-icon/opencart.svg

<svg viewBox="0 0 780 422" xmlns="http://www.w3.org/2000/svg"><path d="M239.4 5.04c5.94 3.37 10.18 8.95 15.81 12.76 18.56 14.4 41.3 22.27 64.25 26.13 5.72 1.64 11.72 1.21 17.46 2.67 5.23 1.31 10.71.22 15.92 1.56 9.98 1.96 20.25.27 30.2 2.25 6.64.31 13.32.09 19.95.76 31.48.24 62.96.19 94.44.34 11.28 1.7 22.79 1.06 34.14 2.09 4.05 1.29 8.33 1.26 12.51 1.74 8.14 2.07 17.08 3.23 23.73 8.85 3.79 3.23 4.64 8.97 2.51 13.36-3.85 8.77-10.61 15.81-17.35 22.44-4.79 4.92-10.04 9.36-15.3 13.77-15.29 13.72-31.4 26.48-46.92 39.94-7.54 5.98-14.29 12.89-22.25 18.34 7.99-11.93 17.2-23.04 27.53-33.04 5.89-6.12 12.18-11.86 17.6-18.42 5.73-6.24 11.6-12.74 14.71-20.75.45-4.25 1.08-9.4-2.8-12.3-8.53-7.27-20.28-8.18-30.85-10.15-6.06-1.55-12.42-.07-18.48-1.6-3.74-.31-7.52-.21-11.21-1.02-27.44-.16-54.89.2-82.32-.25-7.95-1.31-16.03-1.64-24.06-2.1-5.46-1.57-11.24-1.14-16.72-2.48-26.67-4.41-54.15-11.74-75.61-29.08-8.84-7.06-15.71-16.21-21.59-25.81-1.9-3.25-4.31-6.29-5.3-10zm77.06 187.55c4.27-1.68 9-.81 13.48-.86 7.08 1.39 13.01 6.56 16.5 12.75 1.65 5.24 3.48 10.98 1.3 16.37-1.58 8.25-8.78 14.58-16.62 16.9-10.11 2.92-21.85-1.77-27.11-10.91-2.48-3.41-2.34-7.83-2.44-11.84.08-4.08-.09-8.55 2.37-12.04 2.97-4.62 7.3-8.5 12.52-10.37zm110.85-.6c5.98-.59 12.59-1.24 17.98 2.04 6.04 3.4 11.9 9.54 11.32 16.96-.27 5.41 1.17 11.58-2.23 16.27-4.42 6.7-12.21 11.54-20.38 11.23-9.51.39-18.61-5.96-22.45-14.53-.48-5.97-.46-11.99-.03-17.96 2.79-6.78 8.84-11.87 15.79-14.01zm233.73 96c.7-5.15 4.58-9.88 9.94-10.44 4.39-.41 9.65 1.44 11.42 5.81 3.73 6.74 1.39 14.67 2.26 21.97 5.02.24 10.13.68 14.93 2.25 1.97 1.63 4.26 3.63 4.31 6.4.19 3.38.63 7.28-2 9.9-4.29 5.05-11.55 3.72-17.42 4.4.08 16.26.03 32.53.03 48.79.26 4.53-3.09 8.84-7.26 10.4-6.99 3.66-17.1-2.32-16.52-10.41-.04-16.22-.09-32.44.03-48.66-5.45-.46-12.35-.92-15.21-6.42.28-4.38-1.77-10.07 2.4-13.12 3.3-3.45 8.57-1.72 12.64-3.54.31-5.77-.19-11.58.45-17.33zm-557.62 17.25c8.08-1.38 16.44-.74 24.62-.48 13.43 3.05 23.71 14.54 27.77 27.4.46 6.73 3.1 13.36 1.38 20.14-1.02 2.74-.91 5.69-1.36 8.55-3.76 12.24-12.99 23.02-25.32 27.15-8.33 1.97-17.07 1.75-25.5.49-16.81-4.51-28.31-21.44-28.95-38.4.11-5.09-.63-10.41 1.37-15.24 2.7-13.48 12.89-25.24 25.99-29.61m8.47 21.96c-10.02 3.42-12.86 15.72-10.94 25.08 1.2 7.36 7.15 14.55 15.05 14.56 6.06.6 12.06-3.21 14.57-8.68 3-4.52 2-10.09 2.12-15.2.33-10.14-10.86-19.87-20.8-15.76zm51.94-11.24c.06-8.23 10.58-14.32 17.61-9.72 2.4 1.18 3.79 4.16 6.53 4.52 3.39-1.98 6.26-5.1 10.22-5.92 4.24-.55 8.54-.38 12.8-.38 3.6.14 7.42-.2 10.72 1.52 9.85 4.43 16.84 13.56 20.65 23.46 1.99 4.57 1.93 9.67 2.06 14.57-.01 5.57.18 11.22-1 16.7-2.86 8.94-8.1 17.34-15.66 23.04-5.43 4.07-12.18 5.86-18.81 6.67-7.25.06-14.23-2.53-20.45-6.09-.36 9.48 1.69 19.3-1.49 28.48-.96 3.85-4.12 6.44-6.73 9.19h-8.58c-2.97-2.28-6.32-4.66-7.47-8.42-.67-2.8-.4-5.72-.44-8.57.06-29.68-.03-59.37.04-89.05m36.02 11.14c-3.32 1.25-6.59 3.13-8.26 6.4-3.74 5.02-3.28 11.61-2.99 17.53.33 7.41 5.83 14.77 13.44 15.74 2.86.08 5.99.41 8.55-1.16 7.21-3.43 10.81-11.91 9.91-19.62.72-6.96-2.84-14.11-8.81-17.73-3.53-2.06-8.02-2.72-11.84-1.16zm81.46-22.04c6.16-.96 12.46-.53 18.67-.55 8.08-.5 15.37 4.16 20.97 9.55 8.94 8.62 13.79 21.43 12.36 33.8-1.03 4.25-5.22 6.74-9.44 6.66-15.07.18-30.15-.08-45.22.11-1.46 6.82 5.62 11.23 11.34 12.44 6.26.51 12.99 1.04 18.78-1.93 5.21-1.99 10.4-5.6 16.24-4.43 2.83.43 4.58 2.92 6.27 4.98.6 3.23.57 6.61.05 9.86-4.11 7.58-12.98 10.21-20.68 12.55-9.79 1.54-19.84 1.87-29.66.29-15.64-4.45-27.75-19.35-28.54-35.65-.23-7.57-.58-15.45 2.35-22.6 4.72-11.6 14.5-21.27 26.51-25.08m4.65 20.9c-4.06 2.63-8.09 6.54-7.55 11.82 10.06.2 20.13.21 30.19 0 .24-6.23-5.22-10.33-10.03-13.22-4.14-.37-9.07-1.37-12.61 1.4zm54.68-11.03c-.34-5.26 4.54-9.15 9.29-10.06 5.52-.88 11.19 1.98 14.03 6.75 3.72-3.21 7.66-7.16 12.98-6.97 8.1.17 16.84-1.37 24.3 2.62 6.81 3.04 12.26 9.8 12.48 17.42.32 2.07.75 4.13.71 6.25-.01 15 .01 30.01 0 45.02-.28 3.2-.74 6.84-3.27 9.1-3.68 3.5-9.82 4.89-14.22 1.92-3.98-2.24-5.61-6.81-6.66-10.98-.98-13 .92-26.05-.08-39.05-.09-5.07-3.07-10.16-7.61-12.45-3.6-.46-7.35-.59-10.92.11-4.1 2.73-7.21 7.29-7.16 12.34-.55 12.38.37 24.77-.04 37.15-1.03 4.66-2.2 10.04-6.59 12.75-6.48 4.72-17.6-.57-17.24-8.79-.09-21.04-.1-42.09 0-63.13zm108.75-9.75c7.11-1.19 14.42-.6 21.61-.62 6.96-.23 14.16 2.9 18.36 8.53.47 3.95.42 7.97.07 11.93-1.07 1.93-2.79 3.65-4.7 4.74-6.89 1.92-13.27-2.08-19.82-3.38-8.18-.99-15.88 5.09-18.27 12.72-.47 4.92-.45 9.91-.02 14.85 1.62 5.18 5.04 10.25 10.43 12.08 8.84 3.48 17.04-4.52 25.92-3.06 2.93.25 4.83 2.82 6.46 4.99.34 3.64.39 7.34-.02 10.99-1.68 3.54-5.46 5.43-8.82 7.09-2.75 1.11-5.46 2.71-8.52 2.61-7.34.1-14.71.27-22.04-.15-12.96-3.74-23.14-14.83-26.78-27.69-.75-4.6-2.42-9.06-1.95-13.8-.52-5.08 1.16-9.88 1.99-14.81 3.66-12.54 13.57-23.08 26.1-27.02zm56.38 13.58c4.74-6.11 10.72-11.73 18.32-13.93 6.6-.55 13.27-.5 19.88-.1 4.41.78 7.74 4.1 11.01 6.92 3.17-2.55 5.7-6.57 10.15-6.86 6.43-1.02 12.77 4.03 13.62 10.39.65 5.24.29 10.54.38 15.82-.06 14.69.11 29.39-.09 44.08.1 4.64-2.07 9.5-6.19 11.85-3.63 2.37-8.76 2.36-12.33-.12-2.23-1.41-3.84-3.55-5.57-5.5-3 3.2-6.49 6.46-10.93 7.28-6.67.23-13.35.3-20-.08-7.68-2.2-13.52-8.13-18.37-14.21-11.19-16.24-11.16-39.35.12-55.54m27.2 8.58c-1.94.82-3.85 1.79-5.46 3.16-5.38 6.3-7.4 15.42-4.82 23.34 1.37 7.15 7.84 13.28 15.31 13.02 8.58.45 15.53-7.69 16.16-15.81.37-5.58.67-11.73-2.6-16.57-3.35-6.37-11.82-10.27-18.59-7.14zm60.19-20.82c6.2-3.99 14.96-1.19 18.29 5.21 3.16-2.37 5.94-5.32 9.62-6.92 4.54-.46 9.19-.64 13.71.08 1.72 1.38 3.18 3.05 4.76 4.58.2 4.06.19 8.13.05 12.2-4.55 5.14-11.62 6.09-17.74 8.38-6.21 1.42-9.88 7.89-9.93 13.94-.58 11.25.08 22.53-.32 33.79-.66 4.24-3.46 8.37-7.64 9.79-3.91 2.02-8.58.8-11.97-1.66-3.12-2.21-3.88-6.3-4.52-9.8-.04-19.74-.06-39.48.01-59.21.75-3.88 1.66-8.57 5.68-10.38z" fill="#2dc0ee"/></svg>

<?xml version="1.0" encoding="UTF-8" ?>
<!DOCTYPE svg PUBLIC "-//W3C//DTD SVG 1.1//EN" "http://www.w3.org/Graphics/SVG/1.1/DTD/svg11.dtd">
<svg viewBox="0 0 780 422" version="1.1" xmlns="http://www.w3.org/2000/svg">
<g id="#2dc0eeff">
<path fill="#2dc0ee" opacity="1.00" d=" M 239.40 5.04 C 245.34 8.41 249.58 13.99 255.21 17.80 C 273.77 32.20 296.51 40.07 319.46 43.93 C 325.18 45.57 331.18 45.14 336.92 46.60 C 342.15 47.91 347.63 46.82 352.84 48.16 C 362.82 50.12 373.09 48.43 383.04 50.41 C 389.68 50.72 396.36 50.50 402.99 51.17 C 434.47 51.41 465.95 51.36 497.43 51.51 C 508.71 53.21 520.22 52.57 531.57 53.60 C 535.62 54.89 539.90 54.86 544.08 55.34 C 552.22 57.41 561.16 58.57 567.81 64.19 C 571.60 67.42 572.45 73.16 570.32 77.55 C 566.47 86.32 559.71 93.36 552.97 99.99 C 548.18 104.91 542.93 109.35 537.67 113.76 C 522.38 127.48 506.27 140.24 490.75 153.70 C 483.21 159.68 476.46 166.59 468.50 172.04 C 476.49 160.11 485.70 149.00 496.03 139.00 C 501.92 132.88 508.21 127.14 513.63 120.58 C 519.36 114.34 525.23 107.84 528.34 99.83 C 528.79 95.58 529.42 90.43 525.54 87.53 C 517.01 80.26 505.26 79.35 494.69 77.38 C 488.63 75.83 482.27 77.31 476.21 75.78 C 472.47 75.47 468.69 75.57 465.00 74.76 C 437.56 74.60 410.11 74.96 382.68 74.51 C 374.73 73.20 366.65 72.87 358.62 72.41 C 353.16 70.84 347.38 71.27 341.90 69.93 C 315.23 65.52 287.75 58.19 266.29 40.85 C 257.45 33.79 250.58 24.64 244.70 15.04 C 242.80 11.79 240.39 8.75 239.40 5.04 Z" />
<path fill="#2dc0ee" opacity="1.00" d=" M 316.46 192.59 C 320.73 190.91 325.46 191.78 329.94 191.73 C 337.02 193.12 342.95 198.29 346.44 204.48 C 348.09 209.72 349.92 215.46 347.74 220.85 C 346.16 229.10 338.96 235.43 331.12 237.75 C 321.01 240.67 309.27 235.98 304.01 226.84 C 301.53 223.43 301.67 219.01 301.57 215.00 C 301.65 210.92 301.48 206.45 303.94 202.96 C 306.91 198.34 311.24 194.46 316.46 192.59 Z" />
<path fill="#2dc0ee" opacity="1.00" d=" M 427.31 191.99 C 433.29 191.40 439.90 190.75 445.29 194.03 C 451.33 197.43 457.19 203.57 456.61 210.99 C 456.34 216.40 457.78 222.57 454.38 227.26 C 449.96 233.96 442.17 238.80 434.00 238.49 C 424.49 238.88 415.39 232.53 411.55 223.96 C 411.07 217.99 411.09 211.97 411.52 206.00 C 414.31 199.22 420.36 194.13 427.31 191.99 Z" />
<path fill="#2dc0ee" opacity="1.00" d=" M 661.04 287.99 C 661.74 282.84 665.62 278.11 670.98 277.55 C 675.37 277.14 680.63 278.99 682.40 283.36 C 686.13 290.10 683.79 298.03 684.66 305.33 C 689.68 305.57 694.79 306.01 699.59 307.58 C 701.56 309.21 703.85 311.21 703.90 313.98 C 704.09 317.36 704.53 321.26 701.90 323.88 C 697.61 328.93 690.35 327.60 684.48 328.28 C 684.56 344.54 684.51 360.81 684.51 377.07 C 684.77 381.60 681.42 385.91 677.25 387.47 C 670.26 391.13 660.15 385.15 660.73 377.06 C 660.69 360.84 660.64 344.62 660.76 328.40 C 655.31 327.94 648.41 327.48 645.55 321.98 C 645.83 317.60 643.78 311.91 647.95 308.86 C 651.25 305.41 656.52 307.14 660.59 305.32 C 660.90 299.55 660.40 293.74 661.04 287.99 Z" />
<path fill="#2dc0ee" opacity="1.00" d=" M 103.42 305.24 C 111.50 303.86 119.86 304.50 128.04 304.76 C 141.47 307.81 151.75 319.30 155.81 332.16 C 156.27 338.89 158.91 345.52 157.19 352.30 C 156.17 355.04 156.28 357.99 155.83 360.85 C 152.07 373.09 142.84 383.87 130.51 388.00 C 122.18 389.97 113.44 389.75 105.01 388.49 C 88.20 383.98 76.70 367.05 76.06 350.09 C 76.17 345.00 75.43 339.68 77.43 334.85 C 80.13 321.37 90.32 309.61 103.42 305.24 M 111.89 327.20 C 101.87 330.62 99.03 342.92 100.95 352.28 C 102.15 359.64 108.10 366.83 116.00 366.84 C 122.06 367.44 128.06 363.63 130.57 358.16 C 133.57 353.64 132.57 348.07 132.69 342.96 C 133.02 332.82 121.83 323.09 111.89 327.20 Z" />
<path fill="#2dc0ee" opacity="1.00" d=" M 163.83 315.96 C 163.89 307.73 174.41 301.64 181.44 306.24 C 183.84 307.42 185.23 310.40 187.97 310.76 C 191.36 308.78 194.23 305.66 198.19 304.84 C 202.43 304.29 206.73 304.46 210.99 304.46 C 214.59 304.60 218.41 304.26 221.71 305.98 C 231.56 310.41 238.55 319.54 242.36 329.44 C 244.35 334.01 244.29 339.11 244.42 344.01 C 244.41 349.58 244.60 355.23 243.42 360.71 C 240.56 369.65 235.32 378.05 227.76 383.75 C 222.33 387.82 215.58 389.61 208.95 390.42 C 201.70 390.48 194.72 387.89 188.50 384.33 C 188.14 393.81 190.19 403.63 187.01 412.81 C 186.05 416.66 182.89 419.25 180.28 422.00 L 171.70 422.00 C 168.73 419.72 165.38 417.34 164.23 413.58 C 163.56 410.78 163.83 407.86 163.79 405.01 C 163.85 375.33 163.76 345.64 163.83 315.96 M 199.85 327.10 C 196.53 328.35 193.26 330.23 191.59 333.50 C 187.85 338.52 188.31 345.11 188.60 351.03 C 188.93 358.44 194.43 365.80 202.04 366.77 C 204.90 366.85 208.03 367.18 210.59 365.61 C 217.80 362.18 221.40 353.70 220.50 345.99 C 221.22 339.03 217.66 331.88 211.69 328.26 C 208.16 326.20 203.67 325.54 199.85 327.10 Z" />
<path fill="#2dc0ee" opacity="1.00" d=" M 281.31 305.06 C 287.47 304.10 293.77 304.53 299.98 304.51 C 308.06 304.01 315.35 308.67 320.95 314.06 C 329.89 322.68 334.74 335.49 333.31 347.86 C 332.28 352.11 328.09 354.60 323.87 354.52 C 308.80 354.70 293.72 354.44 278.65 354.63 C 277.19 361.45 284.27 365.86 289.99 367.07 C 296.25 367.58 302.98 368.11 308.77 365.14 C 313.98 363.15 319.17 359.54 325.01 360.71 C 327.84 361.14 329.59 363.63 331.28 365.69 C 331.88 368.92 331.85 372.30 331.33 375.55 C 327.22 383.13 318.35 385.76 310.65 388.10 C 300.86 389.64 290.81 389.97 280.99 388.39 C 265.35 383.94 253.24 369.04 252.45 352.74 C 252.22 345.17 251.87 337.29 254.80 330.14 C 259.52 318.54 269.30 308.87 281.31 305.06 M 285.96 325.96 C 281.90 328.59 277.87 332.50 278.41 337.78 C 288.47 337.98 298.54 337.99 308.60 337.78 C 308.84 331.55 303.38 327.45 298.57 324.56 C 294.43 324.19 289.50 323.19 285.96 325.96 Z" />
<path fill="#2dc0ee" opacity="1.00" d=" M 340.64 314.93 C 340.30 309.67 345.18 305.78 349.93 304.87 C 355.45 303.99 361.12 306.85 363.96 311.62 C 367.68 308.41 371.62 304.46 376.94 304.65 C 385.04 304.82 393.78 303.28 401.24 307.27 C 408.05 310.31 413.50 317.07 413.72 324.69 C 414.04 326.76 414.47 328.82 414.43 330.94 C 414.42 345.94 414.44 360.95 414.43 375.96 C 414.15 379.16 413.69 382.80 411.16 385.06 C 407.48 388.56 401.34 389.95 396.94 386.98 C 392.96 384.74 391.33 380.17 390.28 376.00 C 389.30 363.00 391.20 349.95 390.20 336.95 C 390.11 331.88 387.13 326.79 382.59 324.50 C 378.99 324.04 375.24 323.91 371.67 324.61 C 367.57 327.34 364.46 331.90 364.51 336.95 C 363.96 349.33 364.88 361.72 364.47 374.10 C 363.44 378.76 362.27 384.14 357.88 386.85 C 351.40 391.57 340.28 386.28 340.64 378.06 C 340.55 357.02 340.54 335.97 340.64 314.93 Z" />
<path fill="#2dc0ee" opacity="1.00" d=" M 449.39 305.18 C 456.50 303.99 463.81 304.58 471.00 304.56 C 477.96 304.33 485.16 307.46 489.36 313.09 C 489.83 317.04 489.78 321.06 489.43 325.02 C 488.36 326.95 486.64 328.67 484.73 329.76 C 477.84 331.68 471.46 327.68 464.91 326.38 C 456.73 325.39 449.03 331.47 446.64 339.10 C 446.17 344.02 446.19 349.01 446.62 353.95 C 448.24 359.13 451.66 364.20 457.05 366.03 C 465.89 369.51 474.09 361.51 482.97 362.97 C 485.90 363.22 487.80 365.79 489.43 367.96 C 489.77 371.60 489.82 375.30 489.41 378.95 C 487.73 382.49 483.95 384.38 480.59 386.04 C 477.84 387.15 475.13 388.75 472.07 388.65 C 464.73 388.75 457.36 388.92 450.03 388.50 C 437.07 384.76 426.89 373.67 423.25 360.81 C 422.50 356.21 420.83 351.75 421.30 347.01 C 420.78 341.93 422.46 337.13 423.29 332.20 C 426.95 319.66 436.86 309.12 449.39 305.18 Z" />
<path fill="#2dc0ee" opacity="1.00" d=" M 505.77 318.76 C 510.51 312.65 516.49 307.03 524.09 304.83 C 530.69 304.28 537.36 304.33 543.97 304.73 C 548.38 305.51 551.71 308.83 554.98 311.65 C 558.15 309.10 560.68 305.08 565.13 304.79 C 571.56 303.77 577.90 308.82 578.75 315.18 C 579.40 320.42 579.04 325.72 579.13 331.00 C 579.07 345.69 579.24 360.39 579.04 375.08 C 579.14 379.72 576.97 384.58 572.85 386.93 C 569.22 389.30 564.09 389.29 560.52 386.81 C 558.29 385.40 556.68 383.26 554.95 381.31 C 551.95 384.51 548.46 387.77 544.02 388.59 C 537.35 388.82 530.67 388.89 524.02 388.51 C 516.34 386.31 510.50 380.38 505.65 374.30 C 494.46 358.06 494.49 334.95 505.77 318.76 M 532.97 327.34 C 531.03 328.16 529.12 329.13 527.51 330.50 C 522.13 336.80 520.11 345.92 522.69 353.84 C 524.06 360.99 530.53 367.12 538.00 366.86 C 546.58 367.31 553.53 359.17 554.16 351.05 C 554.53 345.47 554.83 339.32 551.56 334.48 C 548.21 328.11 539.74 324.21 532.97 327.34 Z" />
<path fill="#2dc0ee" opacity="1.00" d=" M 593.16 306.52 C 599.36 302.53 608.12 305.33 611.45 311.73 C 614.61 309.36 617.39 306.41 621.07 304.81 C 625.61 304.35 630.26 304.17 634.78 304.89 C 636.50 306.27 637.96 307.94 639.54 309.47 C 639.74 313.53 639.73 317.60 639.59 321.67 C 635.04 326.81 627.97 327.76 621.85 330.05 C 615.64 331.47 611.97 337.94 611.92 343.99 C 611.34 355.24 612.00 366.52 611.60 377.78 C 610.94 382.02 608.14 386.15 603.96 387.57 C 600.05 389.59 595.38 388.37 591.99 385.91 C 588.87 383.70 588.11 379.61 587.47 376.11 C 587.43 356.37 587.41 336.63 587.48 316.90 C 588.23 313.02 589.14 308.33 593.16 306.52 Z" />
</g>
</svg>
